src/assets/plus.svg

<svg fill="none" height="18" viewBox="0 0 18 18" width="18" xmlns="http://www.w3.org/2000/svg"><rect fill="#fff" height="16.5" rx="8.25" width="16.5" x=".75" y=".75"/><rect height="16.5" rx="8.25" stroke="#fff" stroke-width=".5" width="16.5" x=".75" y=".75"/><path d="m9 17c4.4183 0 8-3.5817 8-8 0-4.41828-3.5817-8-8-8-4.41828 0-8 3.58172-8 8 0 4.4183 3.58172 8 8 8z" fill="#fff"/><path clip-rule="evenodd" d="m9.49544 3.88131c-.03311-.4977-.24231-.88131-.49544-.88131-.27614 0-.5.45652-.5 1.01967v4.83747h-4.48033l-.13836.00457c-.4977.03311-.88131.2423-.88131.49543 0 .27615.45652.5 1.01967.5h4.48033v4.12316l.00456.1384c.03311.4977.24231.8813.49544.8813.27614 0 .5-.4565.5-1.0197v-4.12316h4.4803l.1384-.00456c.4977-.03311.8813-.24231.8813-.49544 0-.27614-.4565-.5-1.0197-.5h-4.4803v-4.83747z" fill="#181818" fill-rule="evenodd"/><path d="m9.49544 3.88131.05-.00165-.00011-.00167zm-.99544 4.97583v.05h.05v-.05zm-4.48033 0v-.05002l-.00165.00005zm-.13836.00457-.00165-.05-.00167.00011zm4.61869.99543h.05v-.05h-.05zm0 4.12316h-.05003l.00006.0017zm.00456.1384-.05.0016.00011.0017zm.99544-4.26156v-.05h-.05v.05zm4.4803 0v.05003l.0017-.00005zm.1384-.00456.0016.05.0017-.00011zm-4.6187-.99544h-.05v.05h.05zm0-4.83747h.05003l-.00006-.00165zm-.5-.96967c.09927 0 .20168.07601.28655.22835.08363.15014.1428.36285.159.60628l.09978-.00664c-.01692-.25428-.0789-.48222-.17142-.64831-.0913-.16388-.22004-.27968-.37391-.27968zm-.45.96967c0-.27563.05489-.5227.14134-.699.08806-.17958.20024-.27067.30866-.27067v-.1c-.16773 0-.30554.13717-.39845.32664-.09451.19275-.15155.45551-.15155.74303zm0 4.83747v-4.83747h-.1v4.83747zm-4.53033.05h4.48033v-.1h-4.48033zm-.13671.00454.13836-.00456-.0033-.09995-.13836.00456zm-.83296.44546c0-.09926.07601-.20168.22835-.28654.15014-.08364.36285-.14281.60628-.159l-.00664-.09978c-.25428.01691-.48222.0789-.64831.17142-.16388.09129-.27968.22004-.27968.3739zm.96967.45c-.27563 0-.5227-.05489-.699-.14134-.17958-.08805-.27067-.20024-.27067-.30866h-.1c0 .16773.13717.30554.32664.39845.19275.09451.45551.15155.74303.15155zm4.48033 0h-4.48033v.1h4.48033zm.05 4.17316v-4.12316h-.1v4.12316zm.00454.1367-.00457-.1383-.09994.0033.00456.1383zm.44546.833c-.09927 0-.20168-.076-.28655-.2283-.08363-.1502-.1428-.3629-.159-.6063l-.09978.0066c.01692.2543.0789.4822.17142.6483.0913.1639.22004.2797.37391.2797zm.45-.9697c0 .2757-.05489.5227-.14134.699-.08806.1796-.20024.2707-.30866.2707v.1c.16773 0 .30554-.1372.39845-.3266.09451-.1928.15155-.4556.15155-.7431zm0-4.12316v4.12316h.1v-4.12316zm4.5303-.05h-4.4803v.1h4.4803zm.1367-.00453-.1383.00456.0033.09995.1383-.00457zm.833-.44547c0 .09927-.076.20169-.2283.28655-.1502.08364-.3629.14281-.6063.159l.0066.09978c.2543-.01692.4822-.0789.6483-.17142.1639-.0913.2797-.22004.2797-.37391zm-.9697-.45c.2757 0 .5227.05489.699.14134.1796.08806.2707.20025.2707.30866h.1c0-.16772-.1372-.30554-.3266-.39844-.1928-.09452-.4556-.15156-.7431-.15156zm-4.4803 0h4.4803v-.1h-4.4803zm-.05-4.88747v4.83747h.1v-4.83747zm-.00454-.13671.00457.13836.09994-.0033-.00456-.13836z" fill="#767676"/></svg>

<svg width="18" height="18" viewBox="0 0 18 18" fill="none" xmlns="http://www.w3.org/2000/svg">
<rect x="0.75" y="0.75" width="16.5" height="16.5" rx="8.25" fill="white"/>
<rect x="0.75" y="0.75" width="16.5" height="16.5" rx="8.25" stroke="white" stroke-width="0.5"/>
<path d="M9 17C13.4183 17 17 13.4183 17 9C17 4.58172 13.4183 1 9 1C4.58172 1 1 4.58172 1 9C1 13.4183 4.58172 17 9 17Z" fill="white"/>
<path fill-rule="evenodd" clip-rule="evenodd" d="M9.49544 3.88131C9.46233 3.38361 9.25313 3 9 3C8.72386 3 8.5 3.45652 8.5 4.01967V8.85714H4.01967L3.88131 8.86171C3.38361 8.89482 3 9.10401 3 9.35714C3 9.63329 3.45652 9.85714 4.01967 9.85714H8.5V13.9803L8.50456 14.1187C8.53767 14.6164 8.74687 15 9 15C9.27614 15 9.5 14.5435 9.5 13.9803V9.85714H13.9803L14.1187 9.85258C14.6164 9.81947 15 9.61027 15 9.35714C15 9.081 14.5435 8.85714 13.9803 8.85714H9.5V4.01967L9.49544 3.88131Z" fill="#181818"/>
<path d="M9.49544 3.88131L9.54544 3.87966L9.54533 3.87799L9.49544 3.88131ZM8.5 8.85714V8.90714H8.55V8.85714H8.5ZM4.01967 8.85714V8.80712L4.01802 8.80717L4.01967 8.85714ZM3.88131 8.86171L3.87966 8.81171L3.87799 8.81182L3.88131 8.86171ZM8.5 9.85714H8.55V9.80714H8.5V9.85714ZM8.5 13.9803H8.44997L8.45003 13.982L8.5 13.9803ZM8.50456 14.1187L8.45456 14.1203L8.45467 14.122L8.50456 14.1187ZM9.5 9.85714V9.80714H9.45V9.85714H9.5ZM13.9803 9.85714V9.90717L13.982 9.90712L13.9803 9.85714ZM14.1187 9.85258L14.1203 9.90258L14.122 9.90247L14.1187 9.85258ZM9.5 8.85714H9.45V8.90714H9.5V8.85714ZM9.5 4.01967H9.55003L9.54997 4.01802L9.5 4.01967ZM9 3.05C9.09927 3.05 9.20168 3.12601 9.28655 3.27835C9.37018 3.42849 9.42935 3.6412 9.44555 3.88463L9.54533 3.87799C9.52841 3.62371 9.46643 3.39577 9.37391 3.22968C9.28261 3.0658 9.15387 2.95 9 2.95V3.05ZM8.55 4.01967C8.55 3.74404 8.60489 3.49697 8.69134 3.32067C8.7794 3.14109 8.89158 3.05 9 3.05V2.95C8.83227 2.95 8.69446 3.08717 8.60155 3.27664C8.50704 3.46939 8.45 3.73215 8.45 4.01967H8.55ZM8.55 8.85714V4.01967H8.45V8.85714H8.55ZM4.01967 8.90714H8.5V8.80714H4.01967V8.90714ZM3.88296 8.91168L4.02132 8.90712L4.01802 8.80717L3.87966 8.81173L3.88296 8.91168ZM3.05 9.35714C3.05 9.25788 3.12601 9.15546 3.27835 9.0706C3.42849 8.98696 3.6412 8.92779 3.88463 8.9116L3.87799 8.81182C3.62371 8.82873 3.39577 8.89072 3.22968 8.98324C3.0658 9.07453 2.95 9.20328 2.95 9.35714H3.05ZM4.01967 9.80714C3.74404 9.80714 3.49697 9.75225 3.32067 9.6658C3.14109 9.57775 3.05 9.46556 3.05 9.35714H2.95C2.95 9.52487 3.08717 9.66268 3.27664 9.75559C3.46939 9.8501 3.73215 9.90714 4.01967 9.90714V9.80714ZM8.5 9.80714H4.01967V9.90714H8.5V9.80714ZM8.55 13.9803V9.85714H8.45V13.9803H8.55ZM8.55454 14.117L8.54997 13.9787L8.45003 13.982L8.45459 14.1203L8.55454 14.117ZM9 14.95C8.90073 14.95 8.79832 14.874 8.71345 14.7217C8.62982 14.5715 8.57065 14.3588 8.55445 14.1154L8.45467 14.122C8.47159 14.3763 8.53357 14.6042 8.62609 14.7703C8.71739 14.9342 8.84613 15.05 9 15.05V14.95ZM9.45 13.9803C9.45 14.256 9.39511 14.503 9.30866 14.6793C9.2206 14.8589 9.10842 14.95 9 14.95V15.05C9.16773 15.05 9.30554 14.9128 9.39845 14.7234C9.49296 14.5306 9.55 14.2678 9.55 13.9803H9.45ZM9.45 9.85714V13.9803H9.55V9.85714H9.45ZM13.9803 9.80714H9.5V9.90714H13.9803V9.80714ZM14.117 9.80261L13.9787 9.80717L13.982 9.90712L14.1203 9.90255L14.117 9.80261ZM14.95 9.35714C14.95 9.45641 14.874 9.55883 14.7217 9.64369C14.5715 9.72733 14.3588 9.7865 14.1154 9.80269L14.122 9.90247C14.3763 9.88555 14.6042 9.82357 14.7703 9.73105C14.9342 9.63975 15.05 9.51101 15.05 9.35714H14.95ZM13.9803 8.90714C14.256 8.90714 14.503 8.96203 14.6793 9.04848C14.8589 9.13654 14.95 9.24873 14.95 9.35714H15.05C15.05 9.18942 14.9128 9.0516 14.7234 8.9587C14.5306 8.86418 14.2678 8.80714 13.9803 8.80714V8.90714ZM9.5 8.90714H13.9803V8.80714H9.5V8.90714ZM9.45 4.01967V8.85714H9.55V4.01967H9.45ZM9.44546 3.88296L9.45003 4.02132L9.54997 4.01802L9.54541 3.87966L9.44546 3.88296Z" fill="#767676"/>
</svg>
